X: 11
T: Handsome Young Maidens, The
C: Charlie Lennon
Z: Sean Perry
S: https://thesession.org/tunes/145#setting50877
R: jig
M: 6/8
L: 1/8
K: Amaj
e|:aed c2B|Ace aga|bee dee|ebb bag|
aed c2B|Ace aga|bee dee|bag a2e:|
|:~c3 ABc|dcd fed|cee aec|Bff fed|
[1 ~c3 ABc|dcd fed|e^de fe=d|cdB A2B:|
[2 ~c3 ABc|dcd fed|e^de f^ef|g^^fg bag||

